X: 18917
T: Independence, The
R: hornpipe
M: 4/4
K: Gmajor
|:Bc|dgfa (3gab gd|(3efg dc (3Bcd BG|FGAB cdag|(3fgf (3efe (3ded (3ABc|
dgfa (3gab gd|(3efg dc B2bg|fedB cAFG|1 (3ABA GF G2:|2 (3ABA GF G2AB||
|:(3cdc (3BAG (3FAc (3edc|(3Bcd (3Bdg (3bag (3fed|
(3cdc (3BAG (3FAc (3edc|(3Bcd (3Bdg (3bag (3fed|
~e2 (3ceg (3c'ba (3gfe|~d2 (3Bdg (3bag (3fed|
(3ced (3cBA (3fed (3cBA|(3GBd (3gdB G4:|

